svgs/crunchyroll.svg

<svg width="192" height="192" viewBox="0 0 192 192" fill="none" xmlns="http://www.w3.org/2000/svg"><path d="M163.649 83.141a6 6 0 0 0 11.591-3.105l-11.591 3.105Zm-11.909-33.41 4.379-4.102-4.379 4.102ZM51.343 41.498l-3.653-4.76 3.653 4.76ZM22.16 105.905l5.987-.392-5.987.392Zm11.149 34.7 5.095-3.168-5.095 3.168Zm23.19 30.543a6 6 0 1 0 6-10.392l-6 10.392Zm118.74-91.112a81.002 81.002 0 0 0-19.121-34.407l-8.758 8.203a69.009 69.009 0 0 1 16.288 29.31l11.591-3.106Zm-19.121-34.407a81.004 81.004 0 0 0-33.082-21.33l-3.858 11.363a69.004 69.004 0 0 1 28.182 18.17l8.758-8.203Zm-33.082-21.33a81 81 0 0 0-39.232-3.217l1.955 11.84a68.999 68.999 0 0 1 33.419 2.74l3.858-11.363Zm-39.232-3.217A81 81 0 0 0 47.69 36.738l7.306 9.52A69 69 0 0 1 85.76 32.923l-1.955-11.84ZM47.69 36.738a80.999 80.999 0 0 0-24.47 30.833l10.93 4.952A69 69 0 0 1 54.996 46.26l-7.306-9.52ZM23.22 67.571a81 81 0 0 0-7.047 38.727l11.975-.785a69.001 69.001 0 0 1 6.002-32.99l-10.93-4.952Zm-7.047 38.727a80.994 80.994 0 0 0 12.042 37.475l10.19-6.336a69 69 0 0 1-10.257-31.924l-11.975.785Zm12.042 37.475A80.998 80.998 0 0 0 56.5 171.148l6-10.392a69.003 69.003 0 0 1-24.095-23.319l-10.19 6.336Z" fill="#000"/><path d="M154.201 99.466a51.502 51.502 0 0 1-26.891 54.699 51.497 51.497 0 0 1-69.453-69.519 51.5 51.5 0 0 1 54.725-26.839" stroke="#000" stroke-width="12" stroke-linecap="round" stroke-linejoin="round"/><path d="M154.125 99.377a29.502 29.502 0 0 1-39.486-2.02 29.498 29.498 0 0 1-2.013-39.486" stroke="#000" stroke-width="12" stroke-linecap="round" stroke-linejoin="round"/></svg>

<svg id="vector" xmlns="http://www.w3.org/2000/svg" width="192" height="192" viewBox="0 0 192 192"><path fill="#000000" d="M163.65,83.14C164.51,86.34 167.8,88.24 171,87.38C174.2,86.53 176.1,83.24 175.24,80.04L163.65,83.14ZM151.74,49.73L156.12,45.63L156.12,45.63L151.74,49.73ZM51.34,41.5L47.69,36.74L47.69,36.74L51.34,41.5ZM22.16,105.9L28.15,105.51L22.16,105.9ZM33.31,140.6L38.41,137.44L38.41,137.44L33.31,140.6ZM56.5,171.15C59.37,172.8 63.04,171.82 64.7,168.95C66.35,166.08 65.37,162.41 62.5,160.76L56.5,171.15ZM175.24,80.04C171.79,67.17 165.23,55.35 156.12,45.63L147.36,53.83C155.12,62.11 160.71,72.18 163.65,83.14L175.24,80.04ZM156.12,45.63C147.01,35.91 135.65,28.58 123.04,24.3L119.18,35.66C129.92,39.31 139.6,45.55 147.36,53.83L156.12,45.63ZM123.04,24.3C110.42,20.02 96.95,18.91 83.81,21.08L85.76,32.92C96.96,31.07 108.43,32.01 119.18,35.66L123.04,24.3ZM83.81,21.08C70.66,23.25 58.26,28.63 47.69,36.74L55,46.26C64,39.35 74.56,34.77 85.76,32.92L83.81,21.08ZM47.69,36.74C37.12,44.85 28.72,55.44 23.22,67.57L34.15,72.52C38.83,62.19 45.99,53.17 55,46.26L47.69,36.74ZM23.22,67.57C17.72,79.7 15.3,93.01 16.17,106.3L28.15,105.51C27.41,94.19 29.47,82.86 34.15,72.52L23.22,67.57ZM16.17,106.3C17.04,119.59 21.18,132.46 28.21,143.77L38.41,137.44C32.41,127.8 28.89,116.84 28.15,105.51L16.17,106.3ZM28.21,143.77C35.25,155.09 44.96,164.49 56.5,171.15L62.5,160.76C52.67,155.08 44.4,147.07 38.41,137.44L28.21,143.77Z" id="path_0"/><path fill="#00000000" d="M154.2,99.47C156.12,110.26 154.55,121.38 149.72,131.22C144.88,141.06 137.03,149.1 127.31,154.16C117.59,159.23 106.5,161.07 95.67,159.4C84.84,157.74 74.81,152.65 67.07,144.9C59.32,137.14 54.25,127.12 52.59,116.28C50.93,105.44 52.78,94.36 57.86,84.65C62.94,74.93 70.98,67.09 80.82,62.26C90.67,57.43 101.79,55.87 112.58,57.81" stroke-linejoin="round" stroke-width="12" stroke="#000000" stroke-linecap="round" id="path_1"/><path fill="#00000000" d="M154.13,99.38C148.46,103.99 141.29,106.33 133.99,105.96C126.7,105.59 119.8,102.52 114.64,97.36C109.47,92.19 106.41,85.3 106.04,78C105.67,70.71 108.01,63.53 112.63,57.87" stroke-linejoin="round" stroke-width="12" stroke="#000000" stroke-linecap="round" id="path_2"/></svg>
